assets/img/braze_icons/file-lock-03.svg

<svg fill="none" height="24" viewBox="0 0 24 24" width="24" xmlns="http://www.w3.org/2000/svg"><g fill="#801ed7"><path d="m12.75 13.25v.75h-1.5v-.75c0-.4142.3358-.75.75-.75s.75.3358.75.75z"/><path d="m13.7 18c.28 0 .42 0 .527-.0545.0941-.0479.1706-.1244.2185-.2185.0545-.107.0545-.247.0545-.527v-.4c0-.28 0-.42-.0545-.527-.0479-.0941-.1244-.1706-.2185-.2185-.107-.0545-.247-.0545-.527-.0545h-3.4c-.28 0-.42004 0-.52699.0545-.09409.0479-.17058.1244-.21851.2185-.0545.107-.0545.247-.0545.527v.4c0 .28 0 .42.0545.527.04793.0941.12442.1706.21851.2185.10695.0545.24699.0545.52699.0545z"/><path clip-rule="evenodd" d="m13 2.01558c0-.0263 0-.03946-.0011-.06331-.0236-.49377-.4579-.92779-.9516-.95115-.0239-.001128-.0317-.001125-.0473-.00112h-3.24134c-.80494-.00001-1.46931-.000019-2.01048.0442-.5621.04592-1.0788.14449-1.56414.39178-.75265.38349-1.36457.99541-1.74806 1.74806-.24729.48534-.34586 1.00204-.39178 1.56414-.04422.54118-.04421 1.20554-.0442 2.01049v10.48263c-.00001.805-.00002 1.4693.0442 2.0105.04592.5621.14449 1.0788.39178 1.5642.38349.7526.99541 1.3645 1.74806 1.748.48534.2473 1.00204.3459 1.56414.3918.54119.0442 1.20554.0442 2.0105.0442h6.48262c.805 0 1.4693 0 2.0105-.0442.5621-.0459 1.0788-.1445 1.5642-.3918.7526-.3835 1.3645-.9954 1.748-1.748.2473-.4854.3459-1.0021.3918-1.5642.0442-.5412.0442-1.2055.0442-2.0105v-7.24136c0-.01553 0-.0233-.0011-.04712-.0233-.49383-.4574-.92811-.9512-.95167-.0239-.00114-.037-.00114-.0632-.00114h-4.4164c-.2524.00003-.4982.00006-.7063-.01694-.2286-.01868-.4984-.06275-.7698-.20105-.3763-.19174-.6823-.4977-.874-.87403-.1383-.27142-.1824-.54116-.201-.76975-.0171-.20816-.017-.45395-.017-.70633zm-3.75 11.23442c0-1.5188 1.2312-2.75 2.75-2.75s2.75 1.2312 2.75 2.75v.778c.2025.024.4296.0736.658.19.3763.1917.6823.4977.874.874.1383.2714.1824.5412.2011.7698.017.2081.0169.4539.0169.7063v.8638c0 .2524.0001.4982-.0169.7063-.0187.2286-.0628.4984-.2011.7698-.1917.3763-.4977.6823-.874.874-.2714.1383-.5412.1824-.7698.2011-.2081.017-.4539.0169-.7063.0169h-3.8638c-.25237 0-.49817.0001-.70632-.0169-.2286-.0187-.49833-.0628-.76976-.2011-.37632-.1917-.68228-.4977-.87403-.874-.13829-.2714-.18236-.5412-.20104-.7698-.01701-.2081-.01698-.4539-.01695-.7063v-.8638c-.00003-.2524-.00006-.4982.01695-.7063.01868-.2286.06275-.4984.20104-.7698.19175-.3763.49771-.6823.87403-.874.22836-.1164.45551-.166.65798-.19z" fill-rule="evenodd"/><path d="m18.908 6.99999c.2936.00001.4404.00001.5606-.07372.1699-.10412.2714-.34943.2249-.54314-.033-.13715-.1287-.2328-.3202-.42409l-3.3323-3.33232c-.1913-.19149-.287-.28723-.4241-.3202-.1937-.04656-.439.05498-.5432.22482-.0737.12027-.0737.26708-.0737.5607v3.10792c0 .28002 0 .42003.0545.52698.0479.09408.1244.17057.2185.21851.107.0545.247.0545.527.0545z"/></g></svg>

<svg width="24" height="24" viewBox="0 0 24 24" fill="none" xmlns="http://www.w3.org/2000/svg">
<path d="M12.75 13.25V14H11.25V13.25C11.25 12.8358 11.5858 12.5 12 12.5C12.4142 12.5 12.75 12.8358 12.75 13.25Z" fill="#801ED7"/>
<path d="M13.7 18C13.98 18 14.12 18 14.227 17.9455C14.3211 17.8976 14.3976 17.8211 14.4455 17.727C14.5 17.62 14.5 17.48 14.5 17.2V16.8C14.5 16.52 14.5 16.38 14.4455 16.273C14.3976 16.1789 14.3211 16.1024 14.227 16.0545C14.12 16 13.98 16 13.7 16H10.3C10.02 16 9.87996 16 9.77301 16.0545C9.67892 16.1024 9.60243 16.1789 9.5545 16.273C9.5 16.38 9.5 16.52 9.5 16.8V17.2C9.5 17.48 9.5 17.62 9.5545 17.727C9.60243 17.8211 9.67892 17.8976 9.77301 17.9455C9.87996 18 10.02 18 10.3 18L13.7 18Z" fill="#801ED7"/>
<path fill-rule="evenodd" clip-rule="evenodd" d="M13 2.01558C13 1.98928 13 1.97612 12.9989 1.95227C12.9753 1.4585 12.541 1.02448 12.0473 1.00112C12.0234 0.999992 12.0156 0.999995 12 1H8.75866C7.95372 0.99999 7.28935 0.999981 6.74818 1.0442C6.18608 1.09012 5.66938 1.18869 5.18404 1.43598C4.43139 1.81947 3.81947 2.43139 3.43598 3.18404C3.18869 3.66938 3.09012 4.18608 3.0442 4.74818C2.99998 5.28936 2.99999 5.95372 3 6.75867V17.2413C2.99999 18.0463 2.99998 18.7106 3.0442 19.2518C3.09012 19.8139 3.18869 20.3306 3.43598 20.816C3.81947 21.5686 4.43139 22.1805 5.18404 22.564C5.66938 22.8113 6.18608 22.9099 6.74818 22.9558C7.28937 23 7.95372 23 8.75868 23H15.2413C16.0463 23 16.7106 23 17.2518 22.9558C17.8139 22.9099 18.3306 22.8113 18.816 22.564C19.5686 22.1805 20.1805 21.5686 20.564 20.816C20.8113 20.3306 20.9099 19.8139 20.9558 19.2518C21 18.7106 21 18.0463 21 17.2413V9.99994C21 9.98441 21 9.97664 20.9989 9.95282C20.9756 9.45899 20.5415 9.02471 20.0477 9.00115C20.0238 9.00001 20.0107 9.00001 19.9845 9.00001L15.5681 9.00001C15.3157 9.00004 15.0699 9.00007 14.8618 8.98307C14.6332 8.96439 14.3634 8.92032 14.092 8.78202C13.7157 8.59028 13.4097 8.28432 13.218 7.90799C13.0797 7.63657 13.0356 7.36683 13.017 7.13824C12.9999 6.93008 13 6.68429 13 6.43191L13 2.01558ZM9.25 13.25C9.25 11.7312 10.4812 10.5 12 10.5C13.5188 10.5 14.75 11.7312 14.75 13.25V14.028C14.9525 14.052 15.1796 14.1016 15.408 14.218C15.7843 14.4097 16.0903 14.7157 16.282 15.092C16.4203 15.3634 16.4644 15.6332 16.4831 15.8618C16.5001 16.0699 16.5 16.3157 16.5 16.5681V17.4319C16.5 17.6843 16.5001 17.9301 16.4831 18.1382C16.4644 18.3668 16.4203 18.6366 16.282 18.908C16.0903 19.2843 15.7843 19.5903 15.408 19.782C15.1366 19.9203 14.8668 19.9644 14.6382 19.9831C14.4301 20.0001 14.1843 20 13.9319 20H10.0681C9.81573 20 9.56993 20.0001 9.36178 19.9831C9.13318 19.9644 8.86345 19.9203 8.59202 19.782C8.2157 19.5903 7.90974 19.2843 7.71799 18.908C7.5797 18.6366 7.53563 18.3668 7.51695 18.1382C7.49994 17.9301 7.49997 17.6843 7.5 17.4319V16.5681C7.49997 16.3157 7.49994 16.0699 7.51695 15.8618C7.53563 15.6332 7.5797 15.3634 7.71799 15.092C7.90974 14.7157 8.2157 14.4097 8.59202 14.218C8.82038 14.1016 9.04753 14.052 9.25 14.028V13.25Z" fill="#801ED7"/>
<path d="M18.908 6.99999C19.2016 7 19.3484 7 19.4686 6.92627C19.6385 6.82215 19.74 6.57684 19.6935 6.38313C19.6605 6.24598 19.5648 6.15033 19.3733 5.95904L16.041 2.62672C15.8497 2.43523 15.754 2.33949 15.6169 2.30652C15.4232 2.25996 15.1779 2.3615 15.0737 2.53134C15 2.65161 15 2.79842 15 3.09204L15 6.19996C15 6.47998 15 6.61999 15.0545 6.72694C15.1024 6.82102 15.1789 6.89751 15.273 6.94545C15.38 6.99995 15.52 6.99995 15.8 6.99995L18.908 6.99999Z" fill="#801ED7"/>
</svg>
